X:1
T:Turku, 12.9.12.9 D
T:Turku, 12.9.12.9 D
T:Aldine Silliman Kieffer, 1877
T:Public Domain Courtesy of the Cyber Hymnal™
C:Aldine Silliman Kieffer, 1877
Z:Public Domain
Z:Courtesy of the Cyber Hymnal™
%%score ( 1 2 ) 3
L:1/8
Q:1/4=105
M:3/4
K:F
V:1 treble 
V:2 treble 
V:3 bass 
V:1
|: C>[CF] | [FA]4 F>[FA] | [Ac]4 [Bd]>[Ac] | [FA]4 F>[FA] | [EG]4 [FA]>[GB] | [Ac]4 [GB]>[FA] | %6
 [EG]4 [CF]>[CG] | [CF]4!fine! :| [FA]>[GB] | [Ac]4 [Ac]>[Bd] | [Ac]4 [GB]>[FA] | [GB]4 [FA]>[EG] | %12
 [FA]4 [FA]>[GB] | [Ac]4 F>[FG] | [FA]4 [GB]>[FA] | [EG]4!D.C.! |] %16
V:2
|: C3/2 x/ | x4 F3/2 x/ | x6 | x4 F3/2 x/ | x6 | x6 | x6 | x4 :| x2 | x6 | x6 | x6 | x6 | %13
 x4 F3/2 x/ | x6 | x4 |] %16
V:3
|: [F,A,]>[F,A,] | [F,C]4 [F,A,]>[F,C] | [F,F]4 [F,F]>[F,F] | [F,C]4 [F,A,]>[F,C] | %4
 [C,C]4 [F,C]>[F,C] | [F,C]4 [C,C]>[C,C] | [C,C]4 [C,A,]>[C,B,] | [F,A,]4 :| [F,C]>[F,C] | %9
 [F,C]4 [F,C]>[F,C] | [F,C]4 [C,C]>[C,C] | [C,C]4 [C,C]>[C,C] | [F,C]4 [F,C]>[F,C] | %13
 [F,C]4 [F,A,]>[F,B,] | [F,D]4 [C,C]>[C,C] | [C,C]4 |] %16

